assets/Last quarter moon/Flat/last_quarter_moon_flat.svg

<svg width="32" height="32" viewBox="0 0 32 32" fill="none" xmlns="http://www.w3.org/2000/svg">
<path d="M27 16C27 23.732 24 27.5 16 30C8.26801 30 2 23.732 2 16C2 8.26801 8.26801 2 16 2C23 4.5 27 8.26801 27 16Z" fill="#FCD53F"/>
<path d="M16 30V2C23.732 2 30 8.26801 30 16C30 23.732 23.732 30 16 30Z" fill="#8D65C5"/>
<path d="M16 4.08535C15.8436 4.03008 15.6753 4 15.5 4C14.6716 4 14 4.67157 14 5.5C14 6.32843 14.6716 7 15.5 7C15.6753 7 15.8436 6.96992 16 6.91465V4.08535Z" fill="#F9C23C"/>
<path d="M16 19.05C14.8589 19.2816 14 20.2905 14 21.5C14 22.7095 14.8589 23.7184 16 23.95V19.05Z" fill="#F9C23C"/>
<path d="M13 12.5C13 14.433 11.433 16 9.5 16C7.567 16 6 14.433 6 12.5C6 10.567 7.567 9 9.5 9C11.433 9 13 10.567 13 12.5Z" fill="#F9C23C"/>
<path d="M10.1888 28.7407C8.02324 27.7514 6.15381 26.2261 4.75012 24.3346C5.39104 23.5218 6.38459 23 7.50001 23C9.433 23 11 24.567 11 26.5C11 27.3524 10.6953 28.1336 10.1888 28.7407Z" fill="#F9C23C"/>
<path d="M17 5.49997C17 6.15308 16.5826 6.7087 16 6.91462V4.08533C16.5826 4.29125 17 4.84686 17 5.49997ZM22.5 14C23.8807 14 25 12.8807 25 11.5C25 10.1193 23.8807 9 22.5 9C21.1193 9 20 10.1193 20 11.5C20 12.8807 21.1193 14 22.5 14ZM24.8816 26.8226C26.658 25.3631 28.0686 23.4748 28.9554 21.316C28.5122 21.1131 28.0193 21 27.5 21C25.567 21 24 22.567 24 24.5C24 25.3912 24.3331 26.2047 24.8816 26.8226ZM16 23.95V19.05C16.1616 19.0172 16.3288 19 16.5 19C17.8807 19 19 20.1193 19 21.5C19 22.8759 17.8884 23.9923 16.5143 24H16.4857C16.3195 23.999 16.1571 23.9819 16 23.95Z" fill="#6B438B"/>
</svg>

<svg xmlns="http://www.w3.org/2000/svg" width="32" height="32" fill="none"><path fill="#FCD53F" d="M27 16c0 7.732-3 11.5-11 14-7.732 0-14-6.268-14-14S8.268 2 16 2c7 2.5 11 6.268 11 14Z"/><path fill="#8D65C5" d="M16 30V2c7.732 0 14 6.268 14 14s-6.268 14-14 14Z"/><path fill="#F9C23C" d="M16 4.085a1.5 1.5 0 1 0 0 2.83v-2.83ZM16 19.05a2.5 2.5 0 0 0 0 4.9v-4.9ZM13 12.5a3.5 3.5 0 1 1-7 0 3.5 3.5 0 0 1 7 0ZM10.189 28.74a14.054 14.054 0 0 1-5.439-4.405 3.5 3.5 0 1 1 5.439 4.406Z"/><path fill="#6B438B" d="M17 5.5a1.5 1.5 0 0 1-1 1.415v-2.83A1.5 1.5 0 0 1 17 5.5Zm5.5 8.5a2.5 2.5 0 1 0 0-5 2.5 2.5 0 0 0 0 5Zm2.382 12.823a14.04 14.04 0 0 0 4.073-5.507 3.5 3.5 0 0 0-4.074 5.507ZM16 23.95v-4.9a2.5 2.5 0 1 1 .514 4.95h-.028a2.515 2.515 0 0 1-.486-.05Z"/></svg>
